X:1
T:Etude 6, Op 176
T:Etude 6, Op 176
T:Jean-Baptiste Duvernoy c. 1802 – c. 1880 
C:J.B. Duvernoy
%%score { 1 | 2 }
L:1/8
Q:1/4=88
M:4/4
K:G
V:1 treble nm="Piano" snm="Pno."
V:2 bass 
V:1
"^Andante"!p!"_dolce cantabile" (d2 g2 | f2 a2 d2 g2 | f2 a2) (dbag | fe^de fgba | %4
 gfed)!pp! (d2 g2 | f2 a2 d2 g2 | f2 a2) (dbag | feba gfef | g2) z2!mf! (a2 gf | e2 fg a2 gf | %10
!<(! e2 fg a2 d2)!<)! |!>(! (b2 ag fed^c | d2)!>)! d2!p! (d2 g2 | f2 a2 d2 g2 | f2 a2) (dbag | %15
 fe^de fgba | gfed) (d2 g2 | f2 a2 d2 g2 | f2 a2) (dbag | feba gfef | g4) z4 |] %21
V:2
 G,DB,D | G,DCD G,DB,D | G,DCD G,2 B,2 | C4 A,2 ^C2 | D2 z2 G,DB,D | G,DB,D G,DB,D | %6
 G,DB,D G,2 B,2 | C2 A,2 D2 D,2 | [G,B,]2 z2 F,DA,D | G,^CA,C F,DA,D | G,^CA,C F,DA,D | %11
 G,EB,E A,2 G2 | [DF]2 z2 G,DB,D | G,DCD G,DB,D | G,DCD G,2 B,2 | C4 A,2 ^C2 | D2 z2 G,DB,D | %17
 G,DCD G,DB,D | G,DCD G,2 B,2 | C2 A,2 D2 D,2 | [G,B,]4 z4 |] %21

